X: 28398
T: Muistoja Karpaateilta
R: waltz
M: 3/4
K: Aminor
E2|c4 B2|A2 F3 D|E6|z2 C2 D2|E2 A2 c2|d2 c3 B|c6|A4 E2|
c4 B2|A2 F2 D2|E6|z2 D2 C2|B,4 D2|C4 B,2|1 A,6-|A,2 z2:|2 A,6|
|:z2 A,B, CD|E4 E2|A4 F2|E6|z2 FE DC|B,4 D2|B,2 ED CB,|A,4 C2|
A,2 A,B, CD|E4 E2|A4 F2|E6|z2 FE DC|B,4 D2|D2 ED CB,|1 A,6:|2 A,6-|A,2 z2 z2|
|:"Usually played an octave below"A,6|C6|E6-|E2 D2 C2|B,6-|B,2 C2 B,2|A,6|E,6|
A,6|C6|E6-|E2 D2 C2|B,4 D2|C4 B,2|A,4 E,2|1 A,6:|2 A,2 z2||

